public/currency/usd.svg

<svg viewBox="0 0 24 24" fill="none" xmlns="http://www.w3.org/2000/svg"><g id="SVGRepo_bgCarrier" stroke-width="0"></g><g id="SVGRepo_tracerCarrier" stroke-linecap="round" stroke-linejoin="round"></g><g id="SVGRepo_iconCarrier"> <path fill-rule="evenodd" clip-rule="evenodd" d="M12 2.75C6.89137 2.75 2.75 6.89137 2.75 12C2.75 17.1086 6.89137 21.25 12 21.25C17.1086 21.25 21.25 17.1086 21.25 12C21.25 6.89137 17.1086 2.75 12 2.75ZM1.25 12C1.25 6.06294 6.06294 1.25 12 1.25C17.9371 1.25 22.75 6.06294 22.75 12C22.75 17.9371 17.9371 22.75 12 22.75C6.06294 22.75 1.25 17.9371 1.25 12ZM12 5.25C12.4142 5.25 12.75 5.58579 12.75 6V6.31673C14.3804 6.60867 15.75 7.83361 15.75 9.5C15.75 9.91421 15.4142 10.25 15 10.25C14.5858 10.25 14.25 9.91421 14.25 9.5C14.25 8.65573 13.3765 7.75 12 7.75C10.6235 7.75 9.75 8.65573 9.75 9.5C9.75 10.3443 10.6235 11.25 12 11.25C13.9372 11.25 15.75 12.5828 15.75 14.5C15.75 16.1664 14.3804 17.3913 12.75 17.6833V18C12.75 18.4142 12.4142 18.75 12 18.75C11.5858 18.75 11.25 18.4142 11.25 18V17.6833C9.61957 17.3913 8.25 16.1664 8.25 14.5C8.25 14.0858 8.58579 13.75 9 13.75C9.41421 13.75 9.75 14.0858 9.75 14.5C9.75 15.3443 10.6235 16.25 12 16.25C13.3765 16.25 14.25 15.3443 14.25 14.5C14.25 13.6557 13.3765 12.75 12 12.75C10.0628 12.75 8.25 11.4172 8.25 9.5C8.25 7.83361 9.61957 6.60867 11.25 6.31673V6C11.25 5.58579 11.5858 5.25 12 5.25Z" fill="#276749"></path> </g></svg>

<svg xmlns="http://www.w3.org/2000/svg" fill="none" viewBox="0 0 24 24"><path fill="#276749" fill-rule="evenodd" d="M12 2.75a9.25 9.25 0 1 0 0 18.5 9.25 9.25 0 0 0 0-18.5ZM1.25 12C1.25 6.063 6.063 1.25 12 1.25S22.75 6.063 22.75 12 17.937 22.75 12 22.75 1.25 17.937 1.25 12ZM12 5.25a.75.75 0 0 1 .75.75v.317c1.63.292 3 1.517 3 3.183a.75.75 0 0 1-1.5 0c0-.844-.873-1.75-2.25-1.75s-2.25.906-2.25 1.75.873 1.75 2.25 1.75c1.937 0 3.75 1.333 3.75 3.25 0 1.666-1.37 2.891-3 3.183V18a.75.75 0 0 1-1.5 0v-.317c-1.63-.292-3-1.517-3-3.183a.75.75 0 0 1 1.5 0c0 .844.873 1.75 2.25 1.75s2.25-.906 2.25-1.75-.873-1.75-2.25-1.75c-1.937 0-3.75-1.333-3.75-3.25 0-1.666 1.37-2.891 3-3.183V6a.75.75 0 0 1 .75-.75Z" clip-rule="evenodd"/></svg>
